packages/templates/gallery/large-7.svg

<svg class="typst-doc" viewBox="0 0 200 300" width="200pt" height="300pt" xmlns="http://www.w3.org/2000/svg" xmlns:xlink="http://www.w3.org/1999/xlink" xmlns:h5="http://www.w3.org/1999/xhtml">
    <path class="typst-shape" fill="#ffffff" fill-rule="nonzero" d="M 0 0v 300 h 200 v -300 Z "/>
    <g>
        <g class="typst-group" transform="matrix(1 0 0 1 68.75 7.5)">
            <g>
                <g class="typst-group">
                    <g>
                        <path class="typst-shape" fill="#eeeeee" fill-rule="nonzero" transform="matrix(1 0 0 1 27.5 44)" d="M 0 0v 167.5 h 7.5 v -167.5 Z "/>
                        <g class="typst-group" transform="matrix(1 0 0 1 10.25 44)">
                            <g>
                                <path class="typst-shape" fill="#2e86ab" fill-rule="nonzero" stroke="#000000" stroke-width="0.5" stroke-linecap="butt" stroke-linejoin="miter" stroke-miterlimit="4" d="M 0 0m 21 0 l 21 15 l -21 15 l -21 -15 Z "/>
                            </g>
                        </g>
                        <a transform="matrix(1 0 0 1 10.25 44)" href="bead://heaven-col0-active1" xlink:href="bead://heaven-col0-active1">
                            <rect width="42" height="30" fill="transparent" stroke="none"/>
                        </a>
                        <g class="typst-group" transform="matrix(1 0 0 1 10.25 81)">
                            <g>
                                <path class="typst-shape" fill="#2e86ab" fill-rule="nonzero" stroke="#000000" stroke-width="0.5" stroke-linecap="butt" stroke-linejoin="miter" stroke-miterlimit="4" d="M 0 0m 21 0 l 21 15 l -21 15 l -21 -15 Z "/>
                            </g>
                        </g>
                        <a transform="matrix(1 0 0 1 10.25 81)" href="bead://earth-col0-pos0-active1" xlink:href="bead://earth-col0-pos0-active1">
                            <rect width="42" height="30" fill="transparent" stroke="none"/>
                        </a>
                        <g class="typst-group" transform="matrix(1 0 0 1 10.25 112.25)">
                            <g>
                                <path class="typst-shape" fill="#2e86ab" fill-rule="nonzero" stroke="#000000" stroke-width="0.5" stroke-linecap="butt" stroke-linejoin="miter" stroke-miterlimit="4" d="M 0 0m 21 0 l 21 15 l -21 15 l -21 -15 Z "/>
                            </g>
                        </g>
                        <a transform="matrix(1 0 0 1 10.25 112.25)" href="bead://earth-col0-pos1-active1" xlink:href="bead://earth-col0-pos1-active1">
                            <rect width="42" height="30" fill="transparent" stroke="none"/>
                        </a>
                        <g class="typst-group" transform="matrix(1 0 0 1 10.25 150.25)">
                            <g>
                                <path class="typst-shape" fill="#e6e6e6" fill-rule="nonzero" stroke="#000000" stroke-width="0.5" stroke-linecap="butt" stroke-linejoin="miter" stroke-miterlimit="4" d="M 0 0m 21 0 l 21 15 l -21 15 l -21 -15 Z "/>
                            </g>
                        </g>
                        <a transform="matrix(1 0 0 1 10.25 150.25)" href="bead://earth-col0-pos2-active0" xlink:href="bead://earth-col0-pos2-active0">
                            <rect width="42" height="30" fill="transparent" stroke="none"/>
                        </a>
                        <g class="typst-group" transform="matrix(1 0 0 1 10.25 181.5)">
                            <g>
                                <path class="typst-shape" fill="#e6e6e6" fill-rule="nonzero" stroke="#000000" stroke-width="0.5" stroke-linecap="butt" stroke-linejoin="miter" stroke-miterlimit="4" d="M 0 0m 21 0 l 21 15 l -21 15 l -21 -15 Z "/>
                            </g>
                        </g>
                        <a transform="matrix(1 0 0 1 10.25 181.5)" href="bead://earth-col0-pos3-active0" xlink:href="bead://earth-col0-pos3-active0">
                            <rect width="42" height="30" fill="transparent" stroke="none"/>
                        </a>
                        <path class="typst-shape" fill="#000000" fill-rule="nonzero" transform="matrix(1 0 0 1 0 75)" d="M 0 0v 5 h 62.5 v -5 Z "/>
                    </g>
                </g>
            </g>
        </g>
    </g>
</svg>

<svg class="typst-doc" viewBox="0 0 200 300" width="200pt" height="300pt" xmlns="http://www.w3.org/2000/svg" xmlns:xlink="http://www.w3.org/1999/xlink" xmlns:h5="http://www.w3.org/1999/xhtml">
    <path class="typst-shape" fill="#ffffff" fill-rule="nonzero" d="M 0 0 L 0 300 L 200 300 L 200 0 Z "/>
    <g>
        <g transform="translate(68.75 7.5)">
            <g class="typst-group">
                <g>
                    <g transform="translate(0 0)">
                        <g class="typst-group">
                            <g>
                                <g transform="translate(27.5 44)">
                                    <path class="typst-shape" fill="#eeeeee" fill-rule="nonzero" d="M 0 0 L 0 167.5 L 7.5 167.5 L 7.5 0 Z "/>
                                </g>
                                <g transform="translate(10.25 44)">
                                    <g class="typst-group">
                                        <g>
                                            <g transform="translate(0 0)">
                                                <path class="typst-shape" fill="#2e86ab" fill-rule="nonzero" stroke="#000000" stroke-width="0.5" stroke-linecap="butt" stroke-linejoin="miter" stroke-miterlimit="4" d="M 21 0 L 42 15 L 21 30 L 0 15 Z "/>
                                            </g>
                                        </g>
                                    </g>
                                </g>
                                <g transform="translate(10.25 81)">
                                    <g class="typst-group">
                                        <g>
                                            <g transform="translate(0 0)">
                                                <path class="typst-shape" fill="#2e86ab" fill-rule="nonzero" stroke="#000000" stroke-width="0.5" stroke-linecap="butt" stroke-linejoin="miter" stroke-miterlimit="4" d="M 21 0 L 42 15 L 21 30 L 0 15 Z "/>
                                            </g>
                                        </g>
                                    </g>
                                </g>
                                <g transform="translate(10.25 112.25)">
                                    <g class="typst-group">
                                        <g>
                                            <g transform="translate(0 0)">
                                                <path class="typst-shape" fill="#2e86ab" fill-rule="nonzero" stroke="#000000" stroke-width="0.5" stroke-linecap="butt" stroke-linejoin="miter" stroke-miterlimit="4" d="M 21 0 L 42 15 L 21 30 L 0 15 Z "/>
                                            </g>
                                        </g>
                                    </g>
                                </g>
                                <g transform="translate(10.25 150.25)">
                                    <g class="typst-group">
                                        <g>
                                            <g transform="translate(0 0)">
                                                <path class="typst-shape" fill="#e6e6e6" fill-rule="nonzero" stroke="#000000" stroke-width="0.5" stroke-linecap="butt" stroke-linejoin="miter" stroke-miterlimit="4" d="M 21 0 L 42 15 L 21 30 L 0 15 Z "/>
                                            </g>
                                        </g>
                                    </g>
                                </g>
                                <g transform="translate(10.25 181.5)">
                                    <g class="typst-group">
                                        <g>
                                            <g transform="translate(0 0)">
                                                <path class="typst-shape" fill="#e6e6e6" fill-rule="nonzero" stroke="#000000" stroke-width="0.5" stroke-linecap="butt" stroke-linejoin="miter" stroke-miterlimit="4" d="M 21 0 L 42 15 L 21 30 L 0 15 Z "/>
                                            </g>
                                        </g>
                                    </g>
                                </g>
                                <g transform="translate(0 75)">
                                    <path class="typst-shape" fill="#000000" fill-rule="nonzero" d="M 0 0 L 0 5 L 62.5 5 L 62.5 0 Z "/>
                                </g>
                            </g>
                        </g>
                    </g>
                </g>
            </g>
        </g>
    </g>
</svg>
